X: 741
T: Mai bianshi
%%abc-version 2.0
%%abcx-abcm2ps-target-version 5.9.1 (29 Sep 2008)
%%abc-creator hum2abc beta
%%abcx-conversion-date 2013/10/02 07:52:30
%%abc-edited-by Helmut Schaffrath
%%humdrum-veritas 3492572958
%%humdrum-veritas-data 4220370104
%%continueall 1
%%barnumbers 0
L: 1/8
M: 4/4
K: Bb
c'2f'2c' d' c' b [I:setbarnb 1]| 
c'2f'2c' d' c' b | 
f4f'2c' d' | 
c'> b g fg4 | 
ff2gf'2e' d' | 
c' c' f gc'4 | 
g f d fg2b g | 
f d c Bc4 | 
c' b c' f' c' d' c' b | 
g f d fg2b g | 
f d c Bc4 |]  



